lib/healthicons/icons/solid/devices/inpatient.svg

<svg fill="none" height="48" viewBox="0 0 48 48" width="48" xmlns="http://www.w3.org/2000/svg"><path clip-rule="evenodd" d="m16.0961 11.1052c-1.4721-1.47288-3.8597-1.4737-5.3329-.0018l-.7041.7035c-1.33923-.3806-2.83755-.04-3.89207 1.0216-1.55604 1.5666-1.55604 4.1091 0 5.6757l.83297.8386v10.6572h-3v2h2.05051c-.64828.6353-1.05051 1.5207-1.05051 2.5 0 1.933 1.567 3.5 3.5 3.5s3.5-1.567 3.5-3.5c0-.9793-.4022-1.8647-1.0505-2.5h26.101c-.6483.6353-1.0505 1.5207-1.0505 2.5 0 1.933 1.567 3.5 3.5 3.5s3.5-1.567 3.5-3.5c0-.9793-.4022-1.8647-1.0505-2.5h2.0505v-2h-4v-3.1127c1.7218-.4227 3-1.988 3-3.8543 0-2.1907-1.7612-3.9666-3.9338-3.9666h-20.9562c-.0815 0-.1598-.0327-.2175-.0908l-.3664-.3688.3684-.3681c1.4733-1.472 1.4741-3.8594.0018-5.3324zm.0206 6.0826.3642-.3639c.6918-.6912.6922-1.8121.0009-2.5037l-1.8002-1.8011c-.6914-.6918-1.8129-.6922-2.5048-.0009l-.3505.3502zm21.8833 12.8122h-29v-8.6437l5.2752 5.3109c.2115.2129.4981.3325.797.3325h22.9278z" fill="#333" fill-rule="evenodd"/></svg>

<svg width="48" height="48" viewBox="0 0 48 48" fill="none" xmlns="http://www.w3.org/2000/svg">
<path fill-rule="evenodd" clip-rule="evenodd" d="M16.0961 11.1052C14.624 9.63232 12.2364 9.6315 10.7632 11.1034L10.0591 11.8069C8.71987 11.4263 7.22155 11.7669 6.16703 12.8285C4.61099 14.3951 4.61099 16.9376 6.16703 18.5042L7 19.3428V30H4V32H6.05051C5.40223 32.6353 5 33.5207 5 34.5C5 36.433 6.567 38 8.5 38C10.433 38 12 36.433 12 34.5C12 33.5207 11.5978 32.6353 10.9495 32H37.0505C36.4022 32.6353 36 33.5207 36 34.5C36 36.433 37.567 38 39.5 38C41.433 38 43 36.433 43 34.5C43 33.5207 42.5978 32.6353 41.9495 32H44V30H40V26.8873C41.7218 26.4646 43 24.8993 43 23.033C43 20.8423 41.2388 19.0664 39.0662 19.0664H18.11C18.0285 19.0664 17.9502 19.0337 17.8925 18.9756L17.5261 18.6068L17.8945 18.2387C19.3678 16.7667 19.3686 14.3793 17.8963 12.9063L16.0961 11.1052ZM16.1167 17.1878L16.4809 16.8239C17.1727 16.1327 17.1731 15.0118 16.4818 14.3202L14.6816 12.5191C13.9902 11.8273 12.8687 11.8269 12.1768 12.5182L11.8263 12.8684L16.1167 17.1878ZM38 30H9V21.3563L14.2752 26.6672C14.4867 26.8801 14.7733 26.9997 15.0722 26.9997H38V30Z" fill="#333333"/>
</svg>
